client/public/img/game/shared/player/death_marker.svg

<?xml version="1.0" encoding="UTF-8" standalone="no"?>
<!-- Created with Inkscape (http://www.inkscape.org/) -->

<svg
   width="153.84801"
   height="153.745"
   viewBox="0 0 40.705619 40.678363"
   version="1.1"
   id="svg12393"
   xmlns="http://www.w3.org/2000/svg"
   xmlns:svg="http://www.w3.org/2000/svg">
  <defs
     id="defs12390">
    <filter
       style="color-interpolation-filters:sRGB"
       id="filter2241"
       x="-0.0062827224"
       y="-0.0061146491"
       width="1.0256544"
       height="1.0249682">
      <feFlood
         flood-opacity="0.498039"
         flood-color="rgb(0,0,0)"
         result="flood"
         id="feFlood2231" />
      <feComposite
         in="flood"
         in2="SourceGraphic"
         operator="in"
         result="composite1"
         id="feComposite2233" />
      <feGaussianBlur
         in="composite1"
         stdDeviation="2"
         result="blur"
         id="feGaussianBlur2235" />
      <feOffset
         dx="10"
         dy="10"
         result="offset"
         id="feOffset2237" />
      <feComposite
         in="SourceGraphic"
         in2="offset"
         operator="over"
         result="composite2"
         id="feComposite2239" />
    </filter>
  </defs>
  <g
     id="layer1">
    <g
       id="g2113"
       transform="translate(-110.55112,-50)">
      <g
         id="g858"
         transform="matrix(0.05194699,0,0,0.05055732,104.12262,47.33563)"
         style="fill:#dcdcdc;fill-opacity:1">
        <path
           id="path6045"
           style="fill:#dcdcdc;fill-opacity:1;stroke:none;stroke-width:0;stroke-linecap:round;stroke-miterlimit:4;stroke-dasharray:none;stroke-opacity:1"
           d="M 1511.8105,803.15039 A 708.6614,708.6614 0 0 0 803.15039,1511.8105 708.6614,708.6614 0 0 0 1511.8105,2220.4727 708.6614,708.6614 0 0 0 2220.4727,1511.8105 708.6614,708.6614 0 0 0 1511.8105,803.15039 Z M 1133.8574,1322.834 a 188.97638,188.97638 0 0 1 188.9766,188.9765 188.97638,188.97638 0 0 1 -188.9766,188.9766 188.97638,188.97638 0 0 1 -188.97459,-188.9766 188.97638,188.97638 0 0 1 188.97459,-188.9765 z m 755.9063,0 a 188.97638,188.97638 0 0 1 188.9765,188.9765 188.97638,188.97638 0 0 1 -188.9765,188.9766 188.97638,188.97638 0 0 1 -188.9766,-188.9766 188.97638,188.97638 0 0 1 188.9766,-188.9765 z m -377.9532,340.1582 c 24.2372,0 48.4749,41.9794 96.9493,125.9394 96.9487,167.9202 96.9482,167.92 -96.9493,167.92 -193.8974,0 -193.8979,2e-4 -96.9492,-167.92 48.4744,-83.96 72.7121,-125.9394 96.9492,-125.9394 z"
           transform="matrix(0.26458333,0,0,0.26458333,110.55112,50)" />
        <rect
           style="fill:#dcdcdc;fill-opacity:1;stroke:none;stroke-width:0;stroke-linecap:round;stroke-linejoin:miter;stroke-miterlimit:4;stroke-dasharray:none;stroke-opacity:1"
           id="rect4985-7-3-3-0"
           width="48"
           height="120"
           x="486.55112"
           y="572.104"
           ry="0" />
        <rect
           style="fill:#dcdcdc;fill-opacity:1;stroke:none;stroke-width:0;stroke-linecap:round;stroke-linejoin:miter;stroke-miterlimit:4;stroke-dasharray:none;stroke-opacity:1"
           id="rect4985-7-3-3-61"
           width="48"
           height="132.10382"
           x="566.55115"
           y="560"
           ry="0" />
        <rect
           style="fill:#dcdcdc;fill-opacity:1;stroke:none;stroke-width:0;stroke-linecap:round;stroke-linejoin:miter;stroke-miterlimit:4;stroke-dasharray:none;stroke-opacity:1"
           id="rect4985-7-3-3-61-9"
           width="48"
           height="132.10382"
           x="406.55112"
           y="560"
           ry="0" />
        <ellipse
           style="fill:#dcdcdc;fill-opacity:1;stroke:none;stroke-width:52.0339;stroke-linecap:round"
           id="path1555-5"
           cx="-449.75604"
           cy="-619.46167"
           transform="rotate(135)"
           rx="62.499996"
           ry="62.5" />
        <ellipse
           style="fill:#dcdcdc;fill-opacity:1;stroke:none;stroke-width:52.034;stroke-linecap:round"
           id="path1555-3-6"
           cx="-445.86697"
           cy="-728.00256"
           transform="rotate(135)"
           rx="62.499996"
           ry="62.5" />
        <circle
           style="fill:#dcdcdc;fill-opacity:1;stroke:none;stroke-width:52.0341;stroke-linecap:round"
           id="path1555-6-2"
           cx="360.23477"
           cy="-630.42181"
           r="62.5"
           transform="rotate(135)" />
        <circle
           style="fill:#dcdcdc;fill-opacity:1;stroke:none;stroke-width:52.0341;stroke-linecap:round"
           id="path1555-7-9"
           cx="363.77029"
           cy="-738.60919"
           r="62.5"
           transform="rotate(135)" />
        <circle
           style="fill:#dcdcdc;fill-opacity:1;stroke:none;stroke-width:52.034;stroke-linecap:round"
           id="path1555"
           cx="276.16135"
           cy="5.974256"
           r="62.5"
           transform="rotate(45)" />
        <circle
           style="fill:#dcdcdc;fill-opacity:1;stroke:none;stroke-width:52.034;stroke-linecap:round"
           id="path1555-3"
           cx="272.27225"
           cy="-102.56662"
           r="62.5"
           transform="rotate(44.999997)" />
        <circle
           style="fill:#dcdcdc;fill-opacity:1;stroke:none;stroke-width:52.034;stroke-linecap:round"
           id="path1555-6"
           cx="1086.1522"
           cy="16.934446"
           r="62.5"
           transform="rotate(45)" />
        <circle
           style="fill:#dcdcdc;fill-opacity:1;stroke:none;stroke-width:52.034;stroke-linecap:round"
           id="path1555-7"
           cx="1082.2631"
           cy="-91.606453"
           r="62.5"
           transform="rotate(45)" />
        <g
           id="rect1133-5"
           transform="matrix(0.26458333,0,0,0.26458333,110.55112,50)"
           style="fill:#dcdcdc;fill-opacity:1">
          <path
             style="color:#000000;fill:#dcdcdc;fill-opacity:1;stroke-width:89.3083;stroke-linecap:round;-inkscape-stroke:none"
             d="M 489.71094,271.95703 271.95703,489.71094 745.5293,963.2832 A 942.9348,942.9348 0 0 1 963.2832,745.5293 Z M 2278.0938,2060.3379 a 942.9348,942.9348 0 0 1 -217.7559,217.7539 l 473.5723,473.5723 217.7558,-217.7539 z"
             id="path9643" />
          <path
             style="color:#000000;fill:#dcdcdc;fill-opacity:1;stroke-linecap:round;-inkscape-stroke:none"
             d="m 489.71094,208.80664 -31.57617,31.57422 -249.32813,249.33008 542.37891,542.37886 30.65039,-42.8105 C 839.14848,909.23152 909.23152,839.14848 989.2793,781.83594 l 42.8105,-30.65039 z m 0,126.30273 405.88476,405.88477 C 838.49144,786.65158 786.65158,838.49144 740.99414,895.5957 L 335.10937,489.71094 Z m 1782.72656,1656.42193 -30.6504,42.8105 c -57.3131,80.0479 -127.3968,150.131 -207.4453,207.4434 l -42.8105,30.6503 542.3789,542.379 280.9062,-280.9043 z m 10.1914,136.4941 405.8848,405.8848 -154.6035,154.6035 -405.8848,-405.8867 c 57.1052,-45.6578 108.9453,-97.4968 154.6035,-154.6016 z"
             id="path9645" />
        </g>
        <g
           id="rect1133-3-2"
           transform="matrix(0.26458333,0,0,0.26458333,110.55112,50)"
           style="fill:#dcdcdc;fill-opacity:1">
          <path
             style="color:#000000;fill:#dcdcdc;fill-opacity:1;stroke-width:87.1032;stroke-linecap:round;-inkscape-stroke:none"
             d="M 2534.0488,270.69141 2061.332,745.60547 a 942.9348,942.9348 0 0 1 214.1114,213.1582 l 471.7168,-473.9082 z M 748.57422,2064.4629 276.46289,2538.7676 489.57422,2752.9297 962.66797,2277.6387 A 942.9348,942.9348 0 0 1 748.57422,2064.4629 Z"
             id="path9649" />
          <path
             style="color:#000000;fill:#dcdcdc;fill-opacity:1;stroke-linecap:round;-inkscape-stroke:none"
             d="m 2534.0527,208.95312 -30.8711,31.01368 -508.8261,511.1914 41.5918,29.83594 c 78.5595,56.35384 147.5169,125.00524 204.2207,203.3125 l 30.0273,41.46486 538.4102,-540.91213 z m -0.01,123.47657 151.6699,152.42187 -406.08,407.9668 C 2234.5154,836.84242 2183.429,785.98402 2127.252,741.11523 Z M 753.82617,1997.4512 717.70703,2033.7383 215.01758,2538.7637 489.57031,2814.668 1029.6406,2272.0879 988.05664,2242.252 C 909.50183,2185.8916 840.54888,2117.2338 783.85156,2038.9219 Z m -9.44726,132.9609 c 45.11477,55.9792 96.1979,106.8418 152.37109,151.7149 L 489.57812,2691.1895 337.9082,2538.7715 Z"
             id="path9651" />
        </g>
      </g>
    </g>
  </g>
</svg>

<svg xmlns="http://www.w3.org/2000/svg" width="153.848" height="153.745" viewBox="0 0 40.706 40.678"><g style="fill:#dcdcdc;fill-opacity:1" transform="matrix(.05195 0 0 .05056 -6.428 -2.664)"><path d="M1511.81 803.15a708.66 708.66 0 0 0-708.66 708.66 708.66 708.66 0 0 0 708.66 708.663 708.66 708.66 0 0 0 708.663-708.662 708.66 708.66 0 0 0-708.662-708.66m-377.953 519.684a188.976 188.976 0 0 1 188.977 188.977 188.976 188.976 0 0 1-188.977 188.976 188.976 188.976 0 0 1-188.974-188.977 188.976 188.976 0 0 1 188.974-188.976m755.907 0a188.976 188.976 0 0 1 188.976 188.977 188.976 188.976 0 0 1-188.976 188.976 188.976 188.976 0 0 1-188.977-188.977 188.976 188.976 0 0 1 188.977-188.976m-377.953 340.158c24.237 0 48.474 41.98 96.949 125.94 96.949 167.92 96.948 167.92-96.95 167.92-193.897 0-193.897 0-96.949-167.92 48.475-83.96 72.712-125.94 96.95-125.94" style="fill:#dcdcdc;fill-opacity:1;stroke:none;stroke-width:0;stroke-linecap:round;stroke-miterlimit:4;stroke-dasharray:none;stroke-opacity:1" transform="matrix(.26458 0 0 .26458 110.551 50)"/><rect width="48" height="120" x="486.551" y="572.104" ry="0" style="fill:#dcdcdc;fill-opacity:1;stroke:none;stroke-width:0;stroke-linecap:round;stroke-linejoin:miter;stroke-miterlimit:4;stroke-dasharray:none;stroke-opacity:1"/><rect width="48" height="132.104" x="566.551" y="560" ry="0" style="fill:#dcdcdc;fill-opacity:1;stroke:none;stroke-width:0;stroke-linecap:round;stroke-linejoin:miter;stroke-miterlimit:4;stroke-dasharray:none;stroke-opacity:1"/><rect width="48" height="132.104" x="406.551" y="560" ry="0" style="fill:#dcdcdc;fill-opacity:1;stroke:none;stroke-width:0;stroke-linecap:round;stroke-linejoin:miter;stroke-miterlimit:4;stroke-dasharray:none;stroke-opacity:1"/><circle cx="-449.756" cy="-619.462" r="62.5" style="fill:#dcdcdc;fill-opacity:1;stroke:none;stroke-width:52.0339;stroke-linecap:round" transform="rotate(135)"/><circle cx="-445.867" cy="-728.003" r="62.5" style="fill:#dcdcdc;fill-opacity:1;stroke:none;stroke-width:52.034;stroke-linecap:round" transform="rotate(135)"/><circle cx="360.235" cy="-630.422" r="62.5" style="fill:#dcdcdc;fill-opacity:1;stroke:none;stroke-width:52.0341;stroke-linecap:round" transform="rotate(135)"/><circle cx="363.77" cy="-738.609" r="62.5" style="fill:#dcdcdc;fill-opacity:1;stroke:none;stroke-width:52.0341;stroke-linecap:round" transform="rotate(135)"/><circle cx="276.161" cy="5.974" r="62.5" style="fill:#dcdcdc;fill-opacity:1;stroke:none;stroke-width:52.034;stroke-linecap:round" transform="rotate(45)"/><circle cx="272.272" cy="-102.567" r="62.5" style="fill:#dcdcdc;fill-opacity:1;stroke:none;stroke-width:52.034;stroke-linecap:round" transform="rotate(45)"/><circle cx="1086.152" cy="16.934" r="62.5" style="fill:#dcdcdc;fill-opacity:1;stroke:none;stroke-width:52.034;stroke-linecap:round" transform="rotate(45)"/><circle cx="1082.263" cy="-91.606" r="62.5" style="fill:#dcdcdc;fill-opacity:1;stroke:none;stroke-width:52.034;stroke-linecap:round" transform="rotate(45)"/><g style="fill:#dcdcdc;fill-opacity:1"><path d="M489.71 271.957 271.958 489.711l473.572 473.572A943 943 0 0 1 963.283 745.53Zm1788.384 1788.38a943 943 0 0 1-217.756 217.755l473.572 473.572 217.756-217.754z" style="color:#000;fill:#dcdcdc;fill-opacity:1;stroke-width:89.3083;stroke-linecap:round;-inkscape-stroke:none" transform="matrix(.26458 0 0 .26458 110.551 50)"/><path d="m489.71 208.807-31.575 31.574-249.328 249.33 542.379 542.379 30.65-42.81a898.3 898.3 0 0 1 207.443-207.444l42.81-30.65zm0 126.302 405.886 405.885a987.4 987.4 0 0 0-154.602 154.602L335.11 489.71Zm1782.728 1656.422-30.65 42.81a898.3 898.3 0 0 1-207.446 207.444l-42.81 30.65 542.378 542.38 280.906-280.905zm10.19 136.494 405.886 405.885-154.604 154.604-405.885-405.887a987.4 987.4 0 0 0 154.604-154.602" style="color:#000;fill:#dcdcdc;fill-opacity:1;stroke-linecap:round;-inkscape-stroke:none" transform="matrix(.26458 0 0 .26458 110.551 50)"/></g><g style="fill:#dcdcdc;fill-opacity:1"><path d="m2534.049 270.691-472.717 474.914a943 943 0 0 1 214.111 213.159l471.717-473.909zM748.574 2064.463l-472.111 474.305 213.111 214.162 473.094-475.291a943 943 0 0 1-214.094-213.176" style="color:#000;fill:#dcdcdc;fill-opacity:1;stroke-width:87.1032;stroke-linecap:round;-inkscape-stroke:none" transform="matrix(.26458 0 0 .26458 110.551 50)"/><path d="m2534.053 208.953-30.871 31.014-508.826 511.191 41.591 29.836a899.4 899.4 0 0 1 204.221 203.313l30.027 41.465 538.41-540.913zm-.01 123.477 151.67 152.422-406.08 407.966a986 986 0 0 0-152.381-151.703ZM753.826 1997.45l-36.119 36.287-502.69 505.026 274.553 275.904 540.07-542.58-41.583-29.836a899.4 899.4 0 0 1-204.205-203.33Zm-9.447 132.961a986.3 986.3 0 0 0 152.371 151.715L489.578 2691.19l-151.67-152.419Z" style="color:#000;fill:#dcdcdc;fill-opacity:1;stroke-linecap:round;-inkscape-stroke:none" transform="matrix(.26458 0 0 .26458 110.551 50)"/></g></g></svg>
